src/actions/16/snap-bounding-box-center.svg

<svg xmlns="http://www.w3.org/2000/svg" viewBox="0 0 16 16">
    <path d="M2 2v3h3V2H2zm9 0v3h3V2h-3zM3 3h1v1H3V3zm3 0v1h1V3H6zm3 0v1h1V3H9zm3 0h1v1h-1V3zM3 6v1h1V6H3zm9 0v1h1V6h-1zM3 9v1h1V9H3zm9 0v1h1V9h-1zM2 11v3h3v-3H2zm9 0v3h3v-3h-3zm-8 1h1v1H3v-1zm3 0v1h1v-1H6zm3 0v1h1v-1H9zm3 0h1v1h-1v-1z" style="fill:currentColor;fill-opacity:1;stroke:none;color:#050505;opacity:.7"/>
    <path d="M8 6a2 2 0 0 0-2 2 2 2 0 0 0 2 2 2 2 0 0 0 2-2 2 2 0 0 0-2-2m0 1a1 1 0 0 1 1 1 1 1 0 0 1-1 1 1 1 0 0 1-1-1 1 1 0 0 1 1-1" style="fill:currentColor;fill-opacity:1;stroke:none;color:#a0b6cb"/>
</svg>

<svg xmlns="http://www.w3.org/2000/svg" viewBox="0 0 16 16">
  <defs id="defs3051">
    <style type="text/css" id="current-color-scheme">
      .ColorScheme-Text {
        color:#363636;
      }
      .ColorScheme-Highlight {
        color:#3daee9;
      }
      </style>
  </defs>
  <path 
        style="fill:currentColor;fill-opacity:1;stroke:none"
        d="M 2 2 L 2 5 L 5 5 L 5 2 L 2 2 z M 11 2 L 11 5 L 14 5 L 14 2 L 11 2 z M 3 3 L 4 3 L 4 4 L 3 4 L 3 3 z M 6 3 L 6 4 L 7 4 L 7 3 L 6 3 z M 9 3 L 9 4 L 10 4 L 10 3 L 9 3 z M 12 3 L 13 3 L 13 4 L 12 4 L 12 3 z M 3 6 L 3 7 L 4 7 L 4 6 L 3 6 z M 12 6 L 12 7 L 13 7 L 13 6 L 12 6 z M 3 9 L 3 10 L 4 10 L 4 9 L 3 9 z M 12 9 L 12 10 L 13 10 L 13 9 L 12 9 z M 2 11 L 2 14 L 5 14 L 5 11 L 2 11 z M 11 11 L 11 14 L 14 14 L 14 11 L 11 11 z M 3 12 L 4 12 L 4 13 L 3 13 L 3 12 z M 6 12 L 6 13 L 7 13 L 7 12 L 6 12 z M 9 12 L 9 13 L 10 13 L 10 12 L 9 12 z M 12 12 L 13 12 L 13 13 L 12 13 L 12 12 z "
        class="ColorScheme-Text"
        />
  <path
        style="fill:currentColor;fill-opacity:1;stroke:none"
        d="M 8,6 A 2,2 0 0 0 6,8 2,2 0 0 0 8,10 2,2 0 0 0 10,8 2,2 0 0 0 8,6 M 8,7 A 1,1 0 0 1 9,8 1,1 0 0 1 8,9 1,1 0 0 1 7,8 1,1 0 0 1 8,7"
        class="ColorScheme-Highlight"
      />
</svg>
